icons/svgs/chevron-circle-down-solid.svg

<svg width="24" height="24" viewBox="0 0 24 24" fill="none" xmlns="http://www.w3.org/2000/svg">
<path d="M12 2C15.5547 2 18.8359 3.91406 20.6328 7C22.4297 10.125 22.4297 13.9141 20.6328 17C18.8359 20.125 15.5547 22 12 22C8.40625 22 5.125 20.125 3.32812 17C1.53125 13.9141 1.53125 10.125 3.32812 7C5.125 3.91406 8.40625 2 12 2ZM7.27344 11.4141L11.3359 15.4766C11.6875 15.8672 12.2734 15.8672 12.6641 15.4766L16.6875 11.4141C17.0781 11.0625 17.0781 10.4766 16.6875 10.125C16.3359 9.73438 15.75 9.73438 15.3594 10.125L11.9609 13.5234L8.5625 10.125C8.21094 9.73438 7.625 9.73438 7.27344 10.125C6.88281 10.4766 6.88281 11.0625 7.27344 11.4141Z" fill="black"/>
</svg>

<svg xmlns="http://www.w3.org/2000/svg" width="24" height="24" fill="currentColor" class="icon-chevron-circle-down-solid" viewBox="0 0 24 24">
  <mask id="a" width="21" height="20" x="1" y="2" maskUnits="userSpaceOnUse" style="mask-type:alpha">
    <path d="M12 2c3.555 0 6.836 1.914 8.633 5 1.797 3.125 1.797 6.914 0 10A9.93 9.93 0 0 1 12 22c-3.594 0-6.875-1.875-8.672-5-1.797-3.086-1.797-6.875 0-10C5.125 3.914 8.406 2 12 2m-4.727 9.414 4.063 4.063c.351.39.937.39 1.328 0l4.024-4.063a.856.856 0 0 0 0-1.289c-.352-.39-.938-.39-1.329 0l-3.398 3.398-3.399-3.398a.855.855 0 0 0-1.289 0 .856.856 0 0 0 0 1.29"/>
  </mask>
  <g mask="url(#a)">
    <path d="M0 0h24v24H0z"/>
  </g>
</svg>
